X:1
T:Title
L:1/8
Q:1/4=105
M:6/8
K:D
V:1 treble nm="Church Organ, Staff"
V:1
 A2 d F2 G | ABA D3 | F G2 FEF | D C2 E A2- | A A2 d F2 | GAB A D2- | D E2 BBA | G F2 E D2 | %8
w: By~Arthur~H.~Brown * * *||||||||
 z d2 B ^A2 | F B2 c d2- | d e2 dcd | B c2 B A2 | z A2 d F2 | GAB A D2- | DFG- G/ z/ FE | %15
w: |||||||
 FDC- C/ z/ EA- | A2 d- d/ z/ BA | GFG- G/ z/ Be- | e2 A Bcd- | def- f/ z/ dB- | B2 c BAd- | %21
w: ||||||
 dBA- A2 B- | Bcd- d2 d- | d3 z3 |] %24
w: |||

